X:1
T:Towner, 87.87 D
T:Towner, 87.87 D
T:Daniel Brink Towner, 1913
T:Public Domain Courtesy of the Cyber Hymnal™
C:Daniel Brink Towner, 1913
Z:Public Domain
Z:Courtesy of the Cyber Hymnal™
%%score ( 1 2 ) ( 3 4 )
L:1/8
Q:1/4=115
M:4/4
K:Eb
V:1 treble 
V:2 treble 
V:3 bass 
V:4 bass 
V:1
 E3 [EG] [GB]2 [Ge]2 | [Gd]2 [Ac]2 [GB]2 [EG]2 | E3 [DF] [EG]2 [GB]2 | ([Ac][GB]) [EG]2 [DF]4 | %4
 E3 [EG] [GB]2 [Ge]2 | [Gd]2 [Ac]2 [GB]2 [EG]2 | [EF]3 [EG] [E=A]2 [Fe]2 | [Fd]2 [Ec]2 [DB]4 | %8
 [EB]3 [Ec] [EB]2 [EG]2 | [Ge]3 [Gf] [Ae]2 [Ac]2 | [GB]3 [Ac] [GB]2 [EG]2 | %11
 ([Ac][GB]) [EG]2 [DF]4 | [EB]3 [Ec] [EB]2 [EG]2 | [Ge]3 [Gf] [Ae]2 [Ac]2 | %14
 [GB]3 [Ac] [GB]2 [Ee]2 | [EG]2 [DF]2 E4 |] %16
V:2
 E3 x5 | x8 | E3 x5 | x8 | E3 x5 | x8 | x8 | x8 | x8 | x8 | x8 | x8 | x8 | x8 | x8 | x4 E4 |] %16
V:3
 [E,G,]3 [E,B,] [E,E]2 [E,B,]2 | [E,B,]2 (CD) [E,E]2 [E,B,]2 | [G,B,]3 [F,B,] [E,B,]2 [E,E]2 | %3
 [E,E]2 [E,B,]2 [B,,B,]4 | [E,G,]3 [E,B,] [E,E]2 [E,B,]2 | [E,B,]2 (CD) [E,E]2 [E,B,]2 | %6
 [F,=A,]3 [F,B,] [F,C]2 [F,C]2 | [F,B,]2 F,2 (F,2 A,2) | [E,G,]3 [E,A,] [E,G,]2 [E,B,]2 | %9
 [E,B,]3 [E,B,] [A,C]2 [A,E]2 | [E,E]3 [E,E] [E,E]2 [E,B,]2 | [E,E]2 [E,B,]2 [B,,B,]4 | %12
 [E,G,]3 [E,A,] [E,G,]2 [E,B,]2 | [E,B,]3 [E,B,] [A,C]2 [A,E]2 | [E,E]3 [E,E] [E,E]2 [G,B,]2 | %15
 B,2 [B,,A,]2 [E,G,]4 |] %16
V:4
 x8 | x2 E,2 x4 | x8 | x8 | x8 | x2 E,2 x4 | x8 | x4 B,,4 | x8 | x8 | x8 | x8 | x8 | x8 | x8 | %15
 B,2 x6 |] %16

